X:1
T:Gallant Weaver (in D)
M:C
L:1/8
C:Robert Burns
P:A.(A2B3)4.A
Q:1/4=126
K:D
"A"|: ABAG FG A2 | Bc d2 A3 A | Bc d2 c2 d2 |1 g2 f2 e4 :|2 e4 d2 "B"|:
de | f2 gf e2 fe | dfed dcBA | Bc d2 c2 d2 | g2 f2 e4 |
 ABAG FG A2 | Bc d2 A3 A | Bc d2 c2 d2 | e4 d2 :|
